collections/iconoir/cpu-warning.svg

<svg stroke-width="1.5" fill="none" xmlns="http://www.w3.org/2000/svg" viewBox="0 0 24 24" width="20" height="20"><path d="M19 2v4m0 4.01l.01-.011M16 14v1.4a.6.6 0 01-.6.6H8.6a.6.6 0 01-.6-.6V8.6a.6.6 0 01.6-.6H14" stroke="currentColor" stroke-linecap="round" stroke-linejoin="round"/><path d="M20 14v5.4a.6.6 0 01-.6.6H4.6a.6.6 0 01-.6-.6V4.6a.6.6 0 01.6-.6H14m6 13h2m-5 3v2m-5-2v2m-5-2v2m-3-5H2m2-5H2m2-5H2m10-3V2M7 4V2" stroke="currentColor" stroke-linecap="round" stroke-linejoin="round"/></svg>

<svg stroke-width="1.5" fill="none" xmlns="http://www.w3.org/2000/svg" viewBox="0 0 24 24" width="20" height="20"><path d="M19 2v4M19 10.01l.01-.011M16 14v1.4a.6.6 0 01-.6.6H8.6a.6.6 0 01-.6-.6V8.6a.6.6 0 01.6-.6H14" stroke="currentColor" stroke-linecap="round" stroke-linejoin="round"/><path d="M20 14v5.4a.6.6 0 01-.6.6H4.6a.6.6 0 01-.6-.6V4.6a.6.6 0 01.6-.6H14M20 17h2M17 20v2M12 20v2M7 20v2M4 17H2M4 12H2M4 7H2M12 4V2M7 4V2" stroke="currentColor" stroke-linecap="round" stroke-linejoin="round"/></svg>
